!! 00000] TT[WS
!!!OTL: Yangge
!!!ARE: Asia, China, Shanxi Qinyuan
!! Ethnic Group: Han
!! WI, 326
!!!SCT: J0394
!!!YEM: Copyright 1995, estate of Helmut Schaffrath.
**kern
*ICvox
*Ivox
*M2/4
*k[]
*C:
{4g
8cc
8cc
=1
8.dd
16ee
8dd
8a
=2
8cc
8cc
8g
8a
=3
2g}
=4
{8g
8cc
8cc
8a
=5
8.cc
16a
4g
=6
8.g
16cc
8e
8d
=7
2c}
=8
{8.g
16e
8d
8c
=9
8.e
16g
8g
8a
=10
8g
8e
8d
8c
=11
4A
4r}
=12
{8.ee
16dd
8a
8cc
=13
8dd
4cc
8a
=14
8cc
8g
4cc
=15
8.g
16e
8d
8c}
=16
{8.ee
16dd
8a
8cc
=17
8dd
4cc
8a
=18
4g
4cc
=19
8.g
16e
8d
8c}
==
!!!AGN: Xiaodiao, Yangge. Xinminge, Xuanchuan
!! Neue Text. Politische Liede
!!!ONB: ESAC (Essen Associative Code) Database: CHINA
!!!AMT: simple duple
!!!AIN: vox
!!!EED: Helmut Schaffrath
!!!EEV: 1.0
*-
